X:32
T:Bluebell Polka
M:4/4
K:G
(3Bdg|b2b2 gfge|d2d2 B2G2|FGAB c2e2|ed^cd B2(3Bdg|b2b2 gfge|d2d2 B2G2|
FGAB cdef|g2g2g2::B2|A2A2 FAdf|a2a2f4|a2fa g2e2|b2a2a4|
A2A2 FAdf|a2a2f4|a2fa g2e2|d2f2d2::d2|B2B2 Bcd2|B2B2 Bcd2|
c2c2 cBA2|cBcB cBA2|B2B2 Bcd2|B2B2 Bcd2|c2c2 cAFA|G2B2G2:|

